X: 43043
T: Wind Dancer
R: jig
M: 6/8
K: Amixolydian
e2e edB|edB ~A3|efg edB|dBF GB/c/d|
e2e edB|edB A/B/AG|EGB GB/c/d|1 edB AB/c/d:|2 edB A2G||
|:~F2d GBe|cBA ^ga=g|fdA gec|dAG F/G/FE|
FAd GBe|cBA ~a2g|fzf gec|1 edc dAG:|2 edc dB/c/d||

